img/logo/reasearch.svg

<svg id="Layer_5" enable-background="new 0 0 64 64" height="512" viewBox="0 0 64 64" width="512" xmlns="http://www.w3.org/2000/svg"><g><path d="m16 29c1.654 0 3-1.346 3-3s-1.346-3-3-3-3 1.346-3 3 1.346 3 3 3zm0-4c.552 0 1 .448 1 1s-.448 1-1 1-1-.448-1-1 .448-1 1-1z"/><path d="m16 21c1.654 0 3-1.346 3-3s-1.346-3-3-3-3 1.346-3 3 1.346 3 3 3zm0-4c.552 0 1 .448 1 1s-.448 1-1 1-1-.448-1-1 .448-1 1-1z"/><path d="m16 13c1.654 0 3-1.346 3-3s-1.346-3-3-3-3 1.346-3 3 1.346 3 3 3zm0-4c.552 0 1 .448 1 1s-.448 1-1 1-1-.448-1-1 .448-1 1-1z"/><path d="m27 57h12v2h-12z"/><path d="m37 53h2v2h-2z"/><path d="m27 53h8v2h-8z"/><path d="m27 49h12v2h-12z"/><path d="m31 45h8v2h-8z"/><path d="m27 45h2v2h-2z"/><path d="m27 41h2v2h-2z"/><path d="m31 41h8v2h-8z"/><path d="m40 27c7.168 0 13-5.832 13-13s-5.832-13-13-13-13 5.832-13 13 5.832 13 13 13zm0-24c6.065 0 11 4.935 11 11s-4.935 11-11 11-11-4.935-11-11 4.935-11 11-11z"/><path d="m34 6.382v15.236l15.236-7.618zm2 3.236 8.764 4.382-8.764 4.382z"/><path d="m63 47.777v-7.555l-2.802-.713c-.119-.318-.253-.639-.4-.956l1.479-2.489-5.342-5.342-2.489 1.479c-.317-.147-.638-.281-.956-.4l-.713-2.801h-7.555l-.713 2.802c-.318.119-.639.253-.956.4l-2.489-1.479-2.064 2.064v-1.373c0-1.331-1.083-2.414-2.414-2.414-.636 0-1.258.258-1.707.707l-7.293 7.293h-2.968l1.382-2.764v-33.236h-18v33.236l1.382 2.764h-2.382c-2.757 0-5 2.243-5 5v16c0 2.757 2.243 5 5 5h32c2.757 0 5-2.243 5-5v-2.015c.17.072.34.15.51.214l.713 2.801h7.555l.713-2.802c.318-.119.639-.253.956-.4l2.489 1.479 5.342-5.342-1.479-2.489c.147-.317.281-.638.4-.956zm-49.342-.223c.447.891 1.345 1.446 2.342 1.446s1.895-.555 2.342-1.447l2.276-4.553h2.382v14h-16v-14h4.382zm2.895-.897c-.211.424-.895.423-1.105.001l-6.106-12.21 2.662-1.329 4.003 2 3.997-2 2.654 1.329zm6.447-43.657v29.381l-2.996-1.499-3.997 2-4.003-2-3.004 1.5v-29.382zm18 55c0 1.654-1.346 3-3 3h-32c-1.654 0-3-1.346-3-3v-16c0-1.654 1.346-3 3-3h3.382l1 2h-5.382v18h20v-18h-3.382l1-2h4.796l7.879-7.879c.238-.238.707-.045.707.293v7.586h2c1.654 0 3 1.346 3 3zm1.446-18.24c1.321-1.733 3.352-2.76 5.554-2.76 3.859 0 7 3.141 7 7s-3.141 7-7 7c-1.887 0-3.685-.772-5-2.116v-6.884c0-.809-.212-1.563-.554-2.24zm16.318 11.861-3.143 3.143-2.095-1.246-.493.255c-.56.289-1.126.526-1.685.705l-.528.168-.597 2.354h-4.445l-.598-2.354-.528-.168c-.548-.175-1.103-.408-1.651-.69v-2.32c1.467.982 3.201 1.532 4.999 1.532 4.963 0 9-4.037 9-9s-4.037-9-9-9c-2.666 0-5.142 1.164-6.841 3.157-.864-.712-1.955-1.157-3.159-1.157v-1.385l2.379-2.379 2.095 1.246.493-.255c.56-.289 1.126-.526 1.685-.705l.528-.168.597-2.354h4.445l.598 2.354.528.168c.559.179 1.125.416 1.685.705l.493.255 2.095-1.246 3.143 3.143-1.246 2.095.255.493c.289.56.526 1.126.705 1.685l.168.528 2.354.597v4.445l-2.354.598-.168.528c-.179.559-.416 1.125-.705 1.685l-.255.493z"/></g></svg>

<svg xmlns="http://www.w3.org/2000/svg" xmlns:xlink="http://www.w3.org/1999/xlink" width="62" height="62" viewBox="0 0 62 62"><defs><linearGradient id="a" x1="0.5" x2="0.5" y2="1" gradientUnits="objectBoundingBox"><stop offset="0" stop-color="#f1a119"/><stop offset="0.309" stop-color="#dae30a"/><stop offset="0.665" stop-color="#63cc35"/><stop offset="1" stop-color="#1ce143"/></linearGradient></defs><g transform="translate(-1 -1)"><path d="M16,29a3,3,0,1,0-3-3A3,3,0,0,0,16,29Zm0-4a1,1,0,1,1-1,1A1,1,0,0,1,16,25Z" fill="url(#a)"/><path d="M16,21a3,3,0,1,0-3-3A3,3,0,0,0,16,21Zm0-4a1,1,0,1,1-1,1A1,1,0,0,1,16,17Z" fill="url(#a)"/><path d="M16,13a3,3,0,1,0-3-3A3,3,0,0,0,16,13Zm0-4a1,1,0,1,1-1,1A1,1,0,0,1,16,9Z" fill="url(#a)"/><path d="M27,57H39v2H27Z" fill="url(#a)"/><path d="M37,53h2v2H37Z" fill="url(#a)"/><path d="M27,53h8v2H27Z" fill="url(#a)"/><path d="M27,49H39v2H27Z" fill="url(#a)"/><path d="M31,45h8v2H31Z" fill="url(#a)"/><path d="M27,45h2v2H27Z" fill="url(#a)"/><path d="M27,41h2v2H27Z" fill="url(#a)"/><path d="M31,41h8v2H31Z" fill="url(#a)"/><path d="M40,27A13,13,0,1,0,27,14,13.015,13.015,0,0,0,40,27ZM40,3A11,11,0,1,1,29,14,11.013,11.013,0,0,1,40,3Z" fill="url(#a)"/><path d="M34,6.382V21.618L49.236,14Zm2,3.236L44.764,14,36,18.382Z" fill="url(#a)"/><path d="M63,47.777V40.222l-2.8-.713c-.119-.318-.253-.639-.4-.956l1.479-2.489-5.342-5.342L53.446,32.2c-.317-.147-.638-.281-.956-.4L51.777,29H44.222l-.713,2.8c-.318.119-.639.253-.956.4l-2.489-1.479L38,32.787V31.414a2.414,2.414,0,0,0-4.121-1.707L26.586,37H23.618L25,34.236V1H7V34.236L8.382,37H6a5.006,5.006,0,0,0-5,5V58a5.006,5.006,0,0,0,5,5H38a5.006,5.006,0,0,0,5-5V55.985c.17.072.34.15.51.214l.713,2.8h7.555l.713-2.8c.318-.119.639-.253.956-.4l2.489,1.479,5.342-5.342L59.8,49.446c.147-.317.281-.638.4-.956Zm-49.342-.223a2.619,2.619,0,0,0,4.684,0L20.618,43H23V57H7V43h4.382Zm2.9-.9a.64.64,0,0,1-1.1,0L9.342,34.448,12,33.119l4,2,4-2,2.654,1.329ZM23,3V32.381l-3-1.5-4,2-4-2-3,1.5V3ZM41,58a3,3,0,0,1-3,3H6a3,3,0,0,1-3-3V42a3,3,0,0,1,3-3H9.382l1,2H5V59H25V41H21.618l1-2h4.8l7.879-7.879a.43.43,0,0,1,.707.293V39h2a3,3,0,0,1,3,3Zm1.446-18.24A7,7,0,1,1,43,48.884V42A4.947,4.947,0,0,0,42.446,39.76ZM58.764,51.621l-3.143,3.143-2.1-1.246-.493.255a11.016,11.016,0,0,1-1.685.705l-.528.168L50.223,57H45.778l-.6-2.354-.528-.168A10.826,10.826,0,0,1,43,53.788v-2.32a8.993,8.993,0,1,0-1.842-13.311A4.949,4.949,0,0,0,38,37V35.615l2.379-2.379,2.1,1.246.493-.255a11.016,11.016,0,0,1,1.685-.705l.528-.168.6-2.354h4.445l.6,2.354.528.168a11.016,11.016,0,0,1,1.685.705l.493.255,2.1-1.246,3.143,3.143-1.246,2.1.255.493a11.016,11.016,0,0,1,.705,1.685l.168.528,2.354.6v4.445l-2.354.6-.168.528a11.016,11.016,0,0,1-.705,1.685l-.255.493Z" fill="url(#a)"/></g></svg>
